img/header/X.svg

<svg width="155" height="155" viewBox="0 0 155 155" fill="none" xmlns="http://www.w3.org/2000/svg">
<path d="M119.742 3.12158L77.2439 45.6061L34.7593 3.12158L3.04785 34.8331L45.5324 77.3175L3.04785 119.802L34.7593 151.527L77.2439 109.029L119.742 151.527L151.453 119.816L108.955 77.3175L151.453 34.8331L119.742 3.12158Z" stroke="#FF0B53" stroke-width="4" stroke-miterlimit="10"/>
</svg>

<svg width="155" height="155" fill="none" xmlns="http://www.w3.org/2000/svg"><path d="M119.742 3.122 77.244 45.606 34.759 3.122 3.048 34.833l42.484 42.484-42.484 42.485 31.711 31.725 42.485-42.498 42.498 42.498 31.711-31.711-42.498-42.499 42.498-42.484-31.711-31.711Z" stroke="#FF0B53" stroke-width="4" stroke-miterlimit="10"/></svg>
